X:69
T:Hanoverian Camp. JJo8.069
B:J.Johnson Choice Collection Vol 8 1758
Z:vmp.Simon Wilson 2013 www.village-music-project.org.uk
M:2/4
L:1/8
Q:1/4=100
K:G
GG e/c/B/A/|GG F/A/F/D/|GG e/c/B/A/|B/d/D/F/G2:|
|:GGgg|{c/}BA/G/ F/A/F/D/|GGgg|{c?}BA/G/ A>A|
GG e/c/B/A/|GG F/A/F/D/|GG e/c/B/A/|B/d/D/F/G2:|
